src/lib/packages/icons/src/assets/filled/egg.svg

<svg width="24" height="24" viewBox="0 0 24 24" fill="none" xmlns="http://www.w3.org/2000/svg">
<path d="M12 3C8 3 5 9.58 5 14C5 17 7 21 12 21C17 21 19 17 19 14C19 9.58 16 3 12 3ZM9.92999 8.41C9.92999 8.41 8.75 10.26 8.75 12C8.75 12.41 8.41 12.75 8 12.75C7.59 12.75 7.25 12.41 7.25 12C7.25 9.8 8.60998 7.68 8.66998 7.59C8.89998 7.24 9.36002 7.14 9.71002 7.37C10.06 7.6 10.16 8.06 9.92999 8.41Z" fill="currentColor"/>
</svg>

<svg xmlns="http://www.w3.org/2000/svg" width="24" height="24" fill="none"><path fill="currentColor" d="M12 3C8 3 5 9.58 5 14c0 3 2 7 7 7s7-4 7-7c0-4.42-3-11-7-11ZM9.93 8.41S8.75 10.26 8.75 12c0 .41-.34.75-.75.75s-.75-.34-.75-.75c0-2.2 1.36-4.32 1.42-4.41.23-.35.69-.45 1.04-.22.35.23.45.69.22 1.04Z"/></svg>
